X:367
T: ICH LEGTE MICH NIEDER
N: E0205B
O: Europa, Mitteleuropa, Deutschland, Ober - Lahnkreis, Niedertiefenbach
R: erzaehlendes Volks - Lied, Todes - Ahnung; betrogene Liebe
M: 3/4
L: 1/8
K: G
 | D2G2B2 | A2G2F2 |
ABc2B2 | A4
Bc | ded2c2 | B2A2G2 |
ccB2A2 | G4
Bc | ded2c2 | B2A2G2 |
ccB2A2 | G6

@@@ Tune index: 4017
